src/assets/metronic/worbby/global/img/icon-tech.svg

<?xml version="1.0" encoding="UTF-8"?>
<svg width="45px" height="46px" viewBox="0 0 45 46" version="1.1" xmlns="http://www.w3.org/2000/svg" xmlns:xlink="http://www.w3.org/1999/xlink">
    <!-- Generator: Sketch 41 (35326) - http://www.bohemiancoding.com/sketch -->
    <title>Page 1</title>
    <desc>Created with Sketch.</desc>
    <defs></defs>
    <g id="Worbby-Needor" stroke="none" stroke-width="1" fill="none" fill-rule="evenodd">
        <g id="Categories-List-All" transform="translate(-20.000000, -466.000000)">
            <g id="Group-2-Copy-3" transform="translate(10.000000, 456.000000)">
                <g id="icon-tech" transform="translate(10.000000, 10.000000)">
                    <g id="Page-1">
                        <path d="M18.75,38.3333333 C29.10525,38.3333333 37.5,29.7520333 37.5,19.1666667 C37.5,8.5813 29.10525,0 18.75,0 C8.39475,0 0,8.5813 0,19.1666667 C0,29.7520333 8.39475,38.3333333 18.75,38.3333333" id="Fill-1" fill="#FFCC33"></path>
                        <path d="M33.265875,34.01447 L33.256875,34.01447 L11.732625,34.01447 L11.732625,23.7764033 L33.265875,23.7764033 L33.265875,34.01447 Z M34.435875,21.37597 L10.553625,21.37597 C9.906375,21.37597 9.383625,21.90957 9.383625,22.57197 L9.383625,35.21047 C9.383625,35.87287 9.906375,36.40647 10.553625,36.40647 L34.435875,36.40647 C35.083125,36.40647 35.605125,35.87287 35.605125,35.21047 L35.605125,22.57197 C35.605125,21.90957 35.083125,21.37597 34.435875,21.37597 L34.435875,21.37597 Z M4.003125,43.6085367 L7.620375,39.9109033 L37.351125,39.9109033 L40.968375,43.6085367 L4.003125,43.6085367 Z M8.312625,37.5097033 L36.667125,37.5097033 L36.667125,20.29037 L8.312625,20.29037 L8.312625,37.5097033 Z M44.648625,43.9581367 L39.024375,38.2089033 L39.024375,19.0859367 C39.024375,18.4235367 38.502375,17.8899367 37.855125,17.8899367 L7.143375,17.8899367 C6.495375,17.8899367 5.973375,18.4235367 5.973375,19.0859367 L5.973375,38.2089033 L0.340875,43.9581367 C0.007875,44.2985367 -0.091125,44.8229367 0.088875,45.26377 C0.268875,45.7061367 0.700875,45.99977 1.177125,45.99977 L43.820625,45.99977 C44.297625,45.99977 44.720625,45.7061367 44.909625,45.26377 C45.098625,44.8229367 44.981625,44.2985367 44.648625,43.9581367 L44.648625,43.9581367 Z" id="Fill-3" fill="#1E2225"></path>
                    </g>
                </g>
            </g>
        </g>
    </g>
</svg>

<svg xmlns="http://www.w3.org/2000/svg" width="45" height="46"><g fill="none" fill-rule="evenodd"><path fill="#FC3" d="M18.75 38.3333c10.3553 0 18.75-8.5813 18.75-19.1666C37.5 8.5813 29.1053 0 18.75 0 8.3948 0 0 8.5813 0 19.1667 0 29.752 8.3948 38.3333 18.75 38.3333"/><path fill="#1E2225" d="M33.266 34.0145H11.7325v-10.238H33.266v10.238zm1.17-12.6385H10.5535c-.6472 0-1.17.5336-1.17 1.196v12.6385c0 .6624.5228 1.196 1.17 1.196H34.436c.647 0 1.169-.5336 1.169-1.196V22.572c0-.6624-.522-1.196-1.169-1.196zM4.003 43.6085l3.6174-3.6976H37.351l3.6174 3.6975H4.003zm4.3096-6.0988H36.667V20.2904H8.3127v17.2193zm36.336 6.4484l-5.6242-5.749V19.086c0-.6625-.522-1.196-1.1693-1.196H7.1435c-.648 0-1.17.5335-1.17 1.196v19.123L.341 43.958c-.333.3405-.432.865-.252 1.3058.18.4423.612.736 1.088.736h42.6436c.477 0 .9-.2937 1.089-.736.189-.441.072-.9653-.261-1.3057z"/></g></svg>
